24x24/actions/office-chart-line-stacked.svg

<svg viewBox="0 0 24 24" xmlns="http://www.w3.org/2000/svg"><path d="m5 4v14h-1v1h1v1h1v-1h14v-1h-14v-1h3v-.008l.008.008 2-2h1.592l2 2h5.4v-1h-4.986l-2-2h-2.42l-2 2h-2.594v-5h3.875l2-2 .828-.828 1.295-1.295 2.123 2.123.006-.004.004.004 2-2 .828-.828 1.041-1.042-.707-.707-1.041 1.04-.828.829-1.297 1.297-2.127-2.124-.002.002-.002-.002-1.527 1.527h-6.469v-2.992zm1 3h6.46l-.464.465-.828.828-1.707 1.707h-3.461z" fill="#8b9cbe"/></svg>

<svg xmlns="http://www.w3.org/2000/svg" viewBox="0 0 24 24"><path style="fill:currentColor;fill-opacity:1;stroke:none;color:#8b9cbe" d="M5 4v14H4v1h1v1h1v-1h14v-1H6v-1h3v-.008l.008.008 2-2H12.6l2 2H20v-1h-4.986l-2-2h-2.42l-2 2H6v-5h3.875l2-2 .828-.828 1.295-1.295L16.121 9l.006-.004.004.004 2-2 .828-.828L20 5.13l-.707-.707-1.041 1.04-.828.829-1.297 1.297L14 5.465l-.002.002-.002-.002-1.527 1.527H6V4H5zm1 3h6.46l-.464.465-.828.828L9.461 10H6V7z"/></svg>
